assets/icons/like.svg

<svg width="19" height="19" viewBox="0 0 19 19" fill="none" xmlns="http://www.w3.org/2000/svg">
<path d="M8.77197 16.5103L8.77096 16.5092C6.50442 14.1603 4.67864 12.2664 3.41068 10.4948C2.1531 8.7376 1.5 7.17451 1.5 5.5C1.5 2.73701 3.37265 0.75 5.5625 0.75C6.81795 0.75 8.06735 1.42252 8.89859 2.53812L9.5 3.34525L10.1014 2.53812C10.9327 1.42252 12.182 0.75 13.4375 0.75C15.6273 0.75 17.5 2.73701 17.5 5.5C17.5 7.17451 16.8469 8.73765 15.5892 10.4962C14.3212 12.2691 12.4956 14.1652 10.2293 16.5189C10.229 16.5192 10.2288 16.5195 10.2285 16.5198L9.50205 17.2698L8.77197 16.5103Z" stroke="#901C1C" stroke-width="1.5"/>
</svg>

<svg width="19" height="19" fill="none" xmlns="http://www.w3.org/2000/svg"><path d="M8.772 16.51h-.001c-2.267-2.35-4.092-4.244-5.36-6.015C2.153 8.738 1.5 7.175 1.5 5.5 1.5 2.737 3.373.75 5.563.75c1.255 0 2.504.673 3.336 1.788l.601.807.601-.807C10.933 1.423 12.182.75 13.437.75c2.19 0 4.063 1.987 4.063 4.75 0 1.675-.653 3.238-1.91 4.996-1.269 1.773-3.094 3.67-5.36 6.023h-.002l-.726.75-.73-.759z" stroke="#901C1C" stroke-width="1.5"/></svg>
